Sources/FrostedUI/Resources/Icons.xcassets/webcamOff16.imageset/webcam-off-16.svg

<svg width="16" height="16" viewBox="0 0 16 16" fill="none" xmlns="http://www.w3.org/2000/svg" data-fui-icon="true">
  <path
    d="M1.21973 1.22021C1.50892 0.931019 1.97488 0.927579 2.26855 1.20947L14.79 13.731C15.0725 14.0246 15.0697 14.4914 14.7803 14.7808C14.4874 15.0733 14.0126 15.0733 13.7197 14.7808L11.5376 12.5987C11.4275 12.4885 11.2447 12.5053 11.146 12.6258C10.4594 13.464 9.41894 14.0005 8.25 14.0005H4.75C2.74392 14.0005 1.10578 12.4248 1.00488 10.4438L1 10.2505V5.75049C1.00001 4.81934 1.33964 3.96736 1.9015 3.31168C1.99062 3.20768 1.99043 3.05147 1.89359 2.95462L1.21973 2.28076C0.926917 1.98795 0.927085 1.51313 1.21973 1.22021ZM3.31005 4.37109C3.21111 4.27214 3.04897 4.27296 2.96381 4.38399C2.67328 4.76278 2.50001 5.23627 2.5 5.75049V10.2505L2.51172 10.481C2.62739 11.6151 3.5854 12.5005 4.75 12.5005H8.25C9.04684 12.5005 9.74704 12.0854 10.1465 11.4597C10.2055 11.3673 10.1864 11.2474 10.1088 11.1698L3.31005 4.37109ZM8.25 2.00049C9.61974 2.00049 10.816 2.73473 11.4699 3.8307C11.5557 3.97447 11.7534 4.01298 11.8771 3.90018L12.4043 3.41943C13.3991 2.51122 14.9998 3.21683 15 4.56396V11.437L14.9951 11.562C14.9878 11.658 14.8727 11.6925 14.8046 11.6245L13.5732 10.393C13.5263 10.3462 13.5 10.2826 13.5 10.2163V4.56396C13.5 4.55302 13.4988 4.54628 13.498 4.54346C13.4973 4.54096 13.4955 4.53851 13.4941 4.53662C13.4909 4.53208 13.483 4.52397 13.4697 4.51807C13.4562 4.51219 13.4449 4.51243 13.4395 4.51318C13.4373 4.51353 13.4349 4.51406 13.4326 4.51514C13.43 4.51638 13.4242 4.51941 13.416 4.52686L11.8193 5.98486C11.3175 6.44278 10.5563 6.10578 10.4834 5.48486C10.3525 4.36736 9.40218 3.50049 8.25 3.50049H6.78422C6.71791 3.50049 6.65433 3.47415 6.60744 3.42726L5.60744 2.42727C5.44995 2.26977 5.56149 2.00049 5.78422 2.00049H8.25Z"
    fill="currentColor"
  />
</svg>

<svg xmlns="http://www.w3.org/2000/svg" width="16" height="16" fill="none" data-fui-icon="true" viewBox="0 0 16 16"><path fill="currentColor" d="M1.22 1.22a.75.75 0 0 1 1.049-.01L14.79 13.73a.75.75 0 0 1-1.07 1.05l-2.182-2.182a.266.266 0 0 0-.392.027A3.73 3.73 0 0 1 8.25 14h-3.5a3.75 3.75 0 0 1-3.745-3.557L1 10.25v-4.5c0-.93.34-1.783.902-2.438a.263.263 0 0 0-.008-.357L1.22 2.28a.75.75 0 0 1 0-1.06m2.09 3.151c-.099-.099-.261-.098-.346.013-.29.379-.464.852-.464 1.366v4.5l.012.231a2.25 2.25 0 0 0 2.238 2.02h3.5c.797 0 1.497-.416 1.896-1.041a.23.23 0 0 0-.037-.29zm4.94-2.37c1.37 0 2.566.734 3.22 1.83.086.143.283.182.407.07l.527-.482C13.4 2.511 15 3.217 15 4.564v6.873l-.005.125c-.007.096-.122.13-.19.063l-1.232-1.232a.25.25 0 0 1-.073-.177V4.564l-.002-.02-.004-.007a.1.1 0 0 0-.024-.019.1.1 0 0 0-.03-.005l-.007.002-.017.012-1.597 1.458c-.502.458-1.263.12-1.336-.5A2.25 2.25 0 0 0 8.25 3.5H6.784a.25.25 0 0 1-.177-.073l-1-1A.25.25 0 0 1 5.784 2z"/></svg>
